actions/scalable/document-save-all.svg

<svg height="22" viewBox="0 0 22 22" width="22" xmlns="http://www.w3.org/2000/svg" xmlns:sodipodi="http://sodipodi.sourceforge.net/DTD/sodipodi-0.dtd" xmlns:inkscape="http://www.inkscape.org/namespaces/inkscape">
 <g transform="matrix(1 0 0 1 0 -1030.4)">
  <path d="m3 3v1 15h1 7v-1h-7v-8h3v-0.0078l0.0078 0.0078 2-2h8.9922v3h1v-6h-6.9922l-2-2-0.008 0.0078v-0.0078h-6z" fill="#4d4d4d" transform="matrix(1 0 0 1 0 1030.4)"/>
  <path d="m16.5 1049.6-0.20703-0.207-3.293-3.293 0.70703-0.707 2.293 2.2929v-4.2929h1v4.2929l2.293-2.2929 0.70703 0.707-3.293 3.293-0.20703 0.207z" fill="#4d4d4d"/>
  <path d="m12 12v1 1h1v-1h1v-1h-1-1zm7 0v1h1v1h1v-1-1h-2zm-7 5v1 1h2v-1h-1v-1h-1zm8 0v1h-1v1h2v-1-1h-1z" fill="#4d4d4d" transform="matrix(1 0 0 1 0 1030.4)"/>
 </g>
</svg>

<?xml version="1.0" encoding="UTF-8" standalone="no"?>
<!-- Created with Inkscape (http://www.inkscape.org/) -->

<svg
   xmlns:dc="http://purl.org/dc/elements/1.1/"
   xmlns:cc="http://creativecommons.org/ns#"
   xmlns:rdf="http://www.w3.org/1999/02/22-rdf-syntax-ns#"
   xmlns:svg="http://www.w3.org/2000/svg"
   xmlns="http://www.w3.org/2000/svg"
   xmlns:sodipodi="http://sodipodi.sourceforge.net/DTD/sodipodi-0.dtd"
   xmlns:inkscape="http://www.inkscape.org/namespaces/inkscape"
   width="22"
   height="22"
   id="svg2"
   version="1.1"
   inkscape:version="0.48.5 r10040"
   viewBox="0 0 22 22"
   sodipodi:docname="document-save-all.svg">
  <defs
     id="defs4" />
  <sodipodi:namedview
     id="base"
     pagecolor="#ffffff"
     bordercolor="#666666"
     borderopacity="1.0"
     inkscape:pageopacity="0.0"
     inkscape:pageshadow="2"
     inkscape:zoom="22.627417"
     inkscape:cx="10.736"
     inkscape:cy="11.315133"
     inkscape:document-units="px"
     inkscape:current-layer="layer1"
     showgrid="true"
     inkscape:showpageshadow="false"
     borderlayer="true"
     inkscape:window-width="1366"
     inkscape:window-height="744"
     inkscape:window-x="0"
     inkscape:window-y="24"
     inkscape:window-maximized="1"
     units="px">
    <sodipodi:guide
       position="2,20.000017"
       orientation="18,0"
       id="guide4085" />
    <sodipodi:guide
       position="2,2.0000174"
       orientation="0,18"
       id="guide4087" />
    <sodipodi:guide
       position="20,2.0000174"
       orientation="-18,0"
       id="guide4089" />
    <sodipodi:guide
       position="20,20.000017"
       orientation="0,-18"
       id="guide4091" />
    <sodipodi:guide
       position="3,19.000017"
       orientation="16,0"
       id="guide4093" />
    <sodipodi:guide
       position="3,3.0000174"
       orientation="0,16"
       id="guide4095" />
    <sodipodi:guide
       position="19,3.0000174"
       orientation="-16,0"
       id="guide4097" />
    <sodipodi:guide
       position="19,19.000017"
       orientation="0,-16"
       id="guide4099" />
    <inkscape:grid
       type="xygrid"
       id="grid4101" />
  </sodipodi:namedview>
  <metadata
     id="metadata7">
    <rdf:RDF>
      <cc:Work
         rdf:about="">
        <dc:format>image/svg+xml</dc:format>
        <dc:type
           rdf:resource="http://purl.org/dc/dcmitype/StillImage" />
        <dc:title />
      </cc:Work>
    </rdf:RDF>
  </metadata>
  <g
     inkscape:label="Capa 1"
     inkscape:groupmode="layer"
     id="layer1"
     transform="translate(0,-1030.3622)">
    <path
       style="fill:#666666;fill-opacity:1;stroke:none"
       d="m 3,3 0,1 0,15 1,0 7,0 0,-1 -7,0 0,-8 0,-6 1,0 4,0 2,2 7,0 0,5 1,0 0,-6 -6.992188,0 -2,-2 L 10,3.0078125 10,3 4,3 z"
       transform="translate(0,1030.3622)"
       id="rect4069"
       inkscape:connector-curvature="0"
       sodipodi:nodetypes="cccccccccccccccccccccc" />
    <path
       inkscape:connector-curvature="0"
       style="fill:#666666;fill-opacity:1;stroke:none"
       d="m 16.5,1049.5692 -0.207031,-0.207 -3.292969,-3.293 0.707031,-0.707 2.292969,2.2929 0,-4.2929 1,0 0,4.2929 2.292969,-2.2929 0.707031,0.707 -3.292969,3.293 -0.207031,0.207 z"
       id="rect4071" />
    <path
       style="opacity:1;fill:#666666;fill-opacity:1;stroke:none"
       d="M 12 12 L 12 13 L 12 14 L 13 14 L 13 13 L 14 13 L 14 12 L 13 12 L 12 12 z M 19 12 L 19 13 L 20 13 L 20 14 L 21 14 L 21 13 L 21 12 L 19 12 z M 12 17 L 12 18 L 12 19 L 14 19 L 14 18 L 13 18 L 13 17 L 12 17 z M 20 17 L 20 18 L 19 18 L 19 19 L 21 19 L 21 18 L 21 17 L 20 17 z "
       transform="translate(0,1030.3622)"
       id="rect4111" />
  </g>
</svg>
